X:2196
T:Broderick's
C:Vincent Brodericks
R:Reel
S:Tony Smith, Cavan (fiddle)
Z:Bernie Stocks
N:As played
M:4/4
K:G
A |: BGAG EGDG | EGDG EGDE | (3.G.G.GBd (3egedg | egdg edBA |
G3A {d}BABd | (3egeed efga | bgag eg{a}ge | dBAc BGG2 :|
|: b2gb (3abaga | b2gb aged | G2Bd (3egedg | (3egedg edBA |
G3A {d}BABd | e2ed efga | bgag eg{a}ge | dBAc BGG2 :|


